app/_includes/svgs/devices/iphone6plus.min.svg

<svg xmlns="http://www.w3.org/2000/svg" viewBox="0 0 621.2 1257.1" enable-background="new 0 0 621.2 1257.1"><path fill="#E2E2E2" d="M545.9 0h-470.8c-40.1 0-72.7 32.6-72.7 72.7v1105.8c0 40.1 32.6 72.7 72.7 72.7h470.8c40.1 0 72.7-32.6 72.7-72.7v-1105.8c0-40.1-32.6-72.7-72.7-72.7z"/><path fill="#fff" d="M74.9 1246.7c-37.6 0-68.2-30.6-68.2-68.2v-1105.8c0-37.6 30.6-68.2 68.2-68.2h470.8c37.6 0 68.2 30.6 68.2 68.2v1105.8c0 37.6-30.6 68.2-68.2 68.2h-470.8z"/><circle fill="#16181C" cx="223.6" cy="77.2" r="9.3"/><circle fill="#16181C" cx="309.7" cy="40.7" r="6.8"/><path fill="#16181C" d="M353.2 77.5c0 2.6-2.1 4.7-4.7 4.7h-77.7c-2.6 0-4.7-2.1-4.7-4.7s2.1-4.7 4.7-4.7h77.7c2.7 0 4.7 2.1 4.7 4.7z"/><path fill="#E2E2E2" d="M309.9 1219.7c-23.5 0-42.7-19.1-42.7-42.7s19.1-42.7 42.7-42.7c23.5 0 42.7 19.1 42.7 42.7s-19.2 42.7-42.7 42.7zm0-79.3c-20.2 0-36.7 16.4-36.7 36.7 0 20.2 16.4 36.7 36.7 36.7 20.2 0 36.7-16.4 36.7-36.7 0-20.2-16.5-36.7-36.7-36.7z"/><path fill="#E2E2E2" d="M6.9 192.3c0 1.3-1.1 2.4-2.4 2.4h-2.1c-1.3 0-2.4-1.1-2.4-2.4v-43c0-1.3 1.1-2.4 2.4-2.4h2.1c1.3 0 2.4 1.1 2.4 2.4v43z"/><path fill="#E2E2E2" d="M6.9 318.1c0 1.3-1.1 2.4-2.4 2.4h-2.1c-1.3 0-2.4-1.1-2.4-2.4v-76.8c0-1.3 1.1-2.4 2.4-2.4h2.1c1.3 0 2.4 1.1 2.4 2.4v76.8z"/><path fill="#E2E2E2" d="M621.2 318.1c0 1.3-1.1 2.4-2.4 2.4h-2.1c-1.3 0-2.4-1.1-2.4-2.4v-76.8c0-1.3 1.1-2.4 2.4-2.4h2.1c1.3 0 2.4 1.1 2.4 2.4v76.8z"/><path fill="#E2E2E2" d="M6.9 419.4c0 1.3-1.1 2.4-2.4 2.4h-2.1c-1.3 0-2.4-1.1-2.4-2.4v-76.8c0-1.3 1.1-2.4 2.4-2.4h2.1c1.3 0 2.4 1.1 2.4 2.4v76.8z"/><path fill="#F4F4F4" d="M609 82.2h9.6v20.5h-9.6z"/><path fill="#F4F4F4" d="M2.4 82.2h9.6v20.5h-9.6z"/><path fill="#F4F4F4" d="M609 1150.5h9.6v20.5h-9.6z"/><path fill="#F4F4F4" d="M2.4 1150.5h9.6v20.5h-9.6z"/></svg>

<svg xmlns="http://www.w3.org/2000/svg" viewBox="0 0 621.2 1257.1" enable-background="new 0 0 621.2 1257.1"><path fill="#E2E2E2" d="M545.9,0H75.1C35,0,2.4,32.6,2.4,72.7v1105.8c0,40.1,32.6,72.7,72.7,72.7h470.8c40.1,0,72.7-32.6,72.7-72.7	V72.7C618.6,32.6,586,0,545.9,0z"/><path fill="#fff" d="M74.9,1246.7c-37.6,0-68.2-30.6-68.2-68.2V72.7c0-37.6,30.6-68.2,68.2-68.2h470.8	c37.6,0,68.2,30.6,68.2,68.2v1105.8c0,37.6-30.6,68.2-68.2,68.2H74.9z"/><circle fill="#16181C" cx="223.6" cy="77.2" r="9.3"/><circle fill="#16181C" cx="309.7" cy="40.7" r="6.8"/><path fill="#16181C" d="M353.2,77.5c0,2.6-2.1,4.7-4.7,4.7h-77.7c-2.6,0-4.7-2.1-4.7-4.7l0,0c0-2.6,2.1-4.7,4.7-4.7h77.7	C351.2,72.8,353.2,74.9,353.2,77.5L353.2,77.5z"/><path fill="#E2E2E2" d="M309.9,1219.7c-23.5,0-42.7-19.1-42.7-42.7s19.1-42.7,42.7-42.7c23.5,0,42.7,19.1,42.7,42.7 S333.4,1219.7,309.9,1219.7L309.9,1219.7z M309.9,1140.4c-20.2,0-36.7,16.4-36.7,36.7c0,20.2,16.4,36.7,36.7,36.7 c20.2,0,36.7-16.4,36.7-36.7C346.6,1156.9,330.1,1140.4,309.9,1140.4L309.9,1140.4z"/><path fill="#E2E2E2" d="M6.9,192.3c0,1.3-1.1,2.4-2.4,2.4H2.4c-1.3,0-2.4-1.1-2.4-2.4v-43c0-1.3,1.1-2.4,2.4-2.4h2.1	c1.3,0,2.4,1.1,2.4,2.4V192.3z"/><path fill="#E2E2E2" d="M6.9,318.1c0,1.3-1.1,2.4-2.4,2.4H2.4c-1.3,0-2.4-1.1-2.4-2.4v-76.8c0-1.3,1.1-2.4,2.4-2.4h2.1	c1.3,0,2.4,1.1,2.4,2.4V318.1z"/><path fill="#E2E2E2" d="M621.2,318.1c0,1.3-1.1,2.4-2.4,2.4h-2.1c-1.3,0-2.4-1.1-2.4-2.4v-76.8c0-1.3,1.1-2.4,2.4-2.4h2.1	c1.3,0,2.4,1.1,2.4,2.4V318.1z"/><path fill="#E2E2E2" d="M6.9,419.4c0,1.3-1.1,2.4-2.4,2.4H2.4c-1.3,0-2.4-1.1-2.4-2.4v-76.8c0-1.3,1.1-2.4,2.4-2.4h2.1	c1.3,0,2.4,1.1,2.4,2.4V419.4z"/><path fill="#F4F4F4" d="M609 82.2H618.6V102.7H609z"/><path fill="#F4F4F4" d="M2.4 82.2H12V102.7H2.4z"/><path fill="#F4F4F4" d="M609 1150.5H618.6V1171H609z"/><path fill="#F4F4F4" d="M2.4 1150.5H12V1171H2.4z"/></svg>
